%
;   program:   FirstGangTest
;              Zero: Z+0.
;
;             CAM: Fusion 360 CAM 2.0.1791
;        Document: First drill test part v1
;  Post Processor: Tormach 15LSlantPRO-1.1.05
;
;  ***LOCKED***  : Monday, January 18, 2016 4:33:32 PM
; 
;
;
;    **** PUT LATHE INTO GANG TOOL MODE ***
;
; Tool / Op list ..............................................................................
; -- tool: 21 Korean .375 2FL HSS spot drill   Z : -0.14                     CT: 00:00:13
;           op: spot drill and chamfer
; -- tool: 22  .196 [#9] CoHSS drill           Z : -0.5589                   CT: 00:00:16
;           op: Drill6
; -- tool: 2 Shars SVJBR12-3B                  Z : -0.858                    CT: 00:01:31
;           op: outer profile
; -- tool: 20 Iscar Penta 34                   Z : -0.8591                   CT: 00:00:32
;           op: part-off
; 
; Approximate tool change time:  ................  :  00:01:38
; total cycle time ( with approx tool change time ):  00:04:10
;
G7
G18
G20
G54
G40
G90

G30
M0

; ==============================================================
; Tool: 21 Korean .375 2FL HSS spot drill .375 2FL HSS spot drill
; Time: 00:00:13
;    Z: -0.14
;   Op: spot drill and chamfer
T2121
G97 S1200 M3
G0 X0.
Z1.5 M8
G0 Z1.
Z0.25
Z0.08
G94 G1 Z-0.0937 F1.8
G0 Z-0.0862
G1 Z-0.14 F1.8
G0 Z1.
Z1.5
M9
M5

; ...pull back to safe Z...
Z2.

; ==============================================================
; Tool: 22  .196 [#9] CoHSS drill .196 [#9] CoHSS drill
; Time: 00:00:16
;    Z: -0.5589
;   Op: Drill6
T2222
G97 S1800 M3
G0 X0.
Z1.75 M8
G0 Z1.25
Z0.25
Z0.08
G94 G1 Z-0.06 F3.24
G0 Z0.25
Z0.02
G1 Z-0.115 F3.24
G0 Z0.25
Z-0.035
G1 Z-0.165 F3.24
G0 Z0.25
Z-0.085
G1 Z-0.21 F3.24
G0 Z0.25
Z-0.13
G1 Z-0.255 F3.24
G0 Z0.25
Z-0.175
G1 Z-0.3 F3.24
G0 Z0.25
Z-0.22
G1 Z-0.345 F3.24
G0 Z0.25
Z-0.265
G1 Z-0.39 F3.24
G0 Z0.25
Z-0.31
G1 Z-0.435 F3.24
G0 Z0.25
Z-0.355
G1 Z-0.48 F3.24
G0 Z0.25
Z-0.4
G1 Z-0.525 F3.24
G0 Z0.25
Z-0.445
G1 Z-0.5589 F3.24
G0 Z1.25
Z1.75
M9
M5

G30
M0

; ==============================================================
; Tool: 2 Shars SVJBR12-3B Aluminum profile
; Time: 00:01:31
;    Z: -0.858
;   Op: outer profile
T0202
G96 S260 D1200 M3
G0 X-1.675
Z0.1969 M8
G0 Z0.0562
X-0.9783
G95 G1 X-0.9581 F0.005
X-0.845 Z-0.0004 F0.002
Z-0.858 F0.005
X-0.8742
X-0.9873 Z-0.8014 F0.004
G0 Z0.0562
X-0.9352
G1 X-0.822 Z-0.0004 F0.002
Z-0.858 F0.005
X-0.845
X-0.9581 Z-0.8014 F0.004
G0 Z0.0562
X-0.913
G1 X-0.7999 Z-0.0004 F0.002
G2 X-0.806 Z-0.008 I0.0079 K-0.0076 F0.005
G1 Z-0.358
G2 X-0.792 Z-0.4608 I0.761 K0.
G1 Z-0.858
X-0.822
X-0.9352 Z-0.8014 F0.004
G0 Z-0.4042
G1 X-0.9052 F0.005
X-0.792 Z-0.4608 F0.002
G2 X-0.762 Z-0.5396 I0.754 K0.1028 F0.005
G1 Z-0.858
X-0.792
X-0.9052 Z-0.8014 F0.004
G0 Z-0.483
G1 X-0.8752 F0.005
X-0.762 Z-0.5396 F0.002
G2 X-0.732 Z-0.5923 I0.739 K0.1816 F0.005
G1 Z-0.858
X-0.762
X-0.8752 Z-0.8014 F0.004
G0 Z-0.5358
G1 X-0.8452 F0.005
X-0.732 Z-0.5923 F0.002
G2 X-0.702 Z-0.6344 I0.724 K0.2343 F0.005
G1 Z-0.858
X-0.732
X-0.8452 Z-0.8014 F0.004
G0 Z-0.5778
G1 X-0.8152 F0.005
X-0.702 Z-0.6344 F0.002
G2 X-0.672 Z-0.6702 I0.709 K0.2764 F0.005
G1 Z-0.858
X-0.702
X-0.8152 Z-0.8014 F0.004
G0 Z-0.6136
G1 X-0.7852 F0.005
X-0.672 Z-0.6702 F0.002
G2 X-0.642 Z-0.7016 I0.694 K0.3122 F0.005
G1 Z-0.858
X-0.672
X-0.7852 Z-0.8014 F0.004
G0 Z-0.645
G1 X-0.7552 F0.005
X-0.642 Z-0.7016 F0.002
G2 X-0.612 Z-0.7297 I0.679 K0.3436 F0.005
G1 Z-0.858
X-0.642
X-0.7552 Z-0.8014 F0.004
G0 Z-0.6732
G1 X-0.7252 F0.005
X-0.612 Z-0.7297 F0.002
G2 X-0.582 Z-0.7554 I0.664 K0.3717 F0.005
G1 Z-0.858
X-0.612
X-0.7252 Z-0.8014 F0.004
G0 Z-0.6988
G1 X-0.6952 F0.005
X-0.582 Z-0.7554 F0.002
G2 X-0.552 Z-0.7789 I0.649 K0.3974 F0.005
G1 Z-0.858
X-0.582
X-0.6952 Z-0.8014 F0.004
G0 Z-0.7223
G1 X-0.6652 F0.005
X-0.552 Z-0.7789 F0.002
G2 X-0.529 Z-0.7957 I0.634 K0.4209 F0.005
G1 Z-0.858
X-0.552
X-0.6652 Z-0.8014 F0.004
G0 Z-0.7392
G1 X-0.6422 F0.005
X-0.529 Z-0.7957 F0.002
G2 X-0.506 Z-0.8117 I0.6225 K0.4377 F0.005
G1 Z-0.858
X-0.529
X-0.6422 Z-0.8014 F0.004
X-0.706 F0.005
G0 X-0.9019
Z0.0562
G1 X-0.7887 Z-0.0004 F0.002
G2 X-0.8 Z-0.008 I0.0024 K-0.0076 F0.005
G1 Z-0.358
G2 X-0.5 Z-0.8107 I0.758 K0.
G1 Z-0.858
X-0.6131 Z-0.8014 F0.004
X-0.706 F0.005
G0 X-1.675
Z0.1969
M9
M5

G30
M0

; ==============================================================
; Tool: 20 Iscar Penta 34 1.5mm grooving
; Time: 00:00:32
;    Z: -0.8591
;   Op: part-off
T2020
G96 S350 D1600 M3
G0 X-1.675
Z0.1969 M8
G0 Z-0.8591
G95 G1 X0.0078 F0.002
X-1.675
G0 Z0.1969
M9
M5

G30
M0

M30
%
