%
;   program:   Lathe Turning Test
;              Zero Z: 0
;
;             CAM: Fusion 360 CAM 2.0.1870
;        Document: Coolant Reroute top hat v3
;  Post Processor: Tormach 15LSlantPRO-1.1.10
;
;  ***LOCKED***  : Sunday, January 24, 2016 5:46:01 PM
; 
;
;
; Tool / Op list ..............................................................................
; -- tool: 2 Shars SVJBR12-3B   Z : -1.5423                   CT: 00:02:01
;           op: finish profile
;           op: finish profile (2)
; 
; Approximate tool change time:  ................  :  00:00:47
; total cycle time ( with approx tool change time ):  00:02:48
;
G18
G20
G54
G40
G90

G30

; ==============================================================
; Tool: 2 Shars SVJBR12-3B Steel/SST face turn profile
; Time: 00:02:01
;    Z: -1.5423
;   Op: finish profile
T0202
S2900 M3
G0 X-1.8
Z0.2069 M8
G0 Z-0.2414
X-0.7324
G94 G1 X-0.7119 F20.
X-0.6553 Z-0.298 F4.
G2 X-0.655 Z-0.2986 I0.0606 K0.0285 F8.7
G1 Z-1.1454
G2 X-0.6553 Z-1.1457 I0.6862 K-0.7165
G1 X-0.7118 Z-1.0891 F20.
G0 Z-0.2421
G1 X-0.7116 F20.
X-0.655 Z-0.2986 F4.
G2 X-0.65 Z-0.3073 I0.0603 K0.0291 F8.7
G1 Z-1.1407
G2 X-0.6553 Z-1.1457 I0.6812 K-0.7213
G1 X-0.7118 Z-1.0891 F20.
G0 Z-0.2507
G1 X-0.7066 F20.
X-0.65 Z-0.3073 F4.
G2 X-0.645 Z-0.3137 I0.0553 K0.0378 F8.7
G1 Z-1.136
G2 X-0.6525 Z-1.1431 I0.6762 K-0.726
G1 X-0.7091 Z-1.0865 F20.
G0 Z-0.2571
G1 X-0.7016 F20.
X-0.645 Z-0.3137 F4.
G2 X-0.6404 Z-0.3184 I0.0503 K0.0442 F8.7
G3 X-0.64 Z-0.3188 I-0.0306 K-0.0327
G1 Z-1.1312
G3 X-0.6427 Z-1.1338 I-0.0374 K0.0349
G2 X-0.6475 Z-1.1383 I0.6739 K-0.7281
G1 X-0.7041 Z-1.0818 F20.
G0 Z-0.3188
G1 X-0.64 F20.
G3 X-0.635 Z-0.3245 I-0.0311 K-0.0323 F8.7
G1 Z-1.1249
G3 X-0.6425 Z-1.1337 I-0.0424 K0.0286
G1 X-0.6991 Z-1.0771 F20.
G0 Z-0.268
G1 X-0.6916 F20.
X-0.635 Z-0.3245 F4.
G3 X-0.6306 Z-0.3318 I-0.0361 K-0.0266 F8.7
G1 Z-1.117
G3 X-0.6375 Z-1.1283 I-0.0468 K0.0207
G1 X-0.6941 Z-1.0717 F20.
G0 Z-0.2752
G1 X-0.6872 F20.
X-0.6306 Z-0.3318 F4.
G3 X-0.6262 Z-0.3511 I-0.0405 K-0.0193 F8.7
G1 Z-1.0963
G3 X-0.6331 Z-1.1219 I-0.0512 K0.
G1 X-0.6897 Z-1.0653 F20.
X-0.7032
G0 X-0.7119
Z-0.2334
G1 X-0.6553 Z-0.29 F4.
G2 X-0.6384 Z-0.3162 I0.0606 K0.0205 F8.7
G3 X-0.6232 Z-0.3511 I-0.0327 K-0.0349
G1 Z-1.0963
G3 X-0.6406 Z-1.136 I-0.0542 K0.
G2 X-0.6553 Z-1.1499 I0.6719 K-0.7259
G1 X-0.7119 Z-1.0933 F20.
G0 Z-0.2195
G1 X-0.6553 Z-0.2761 F4.
G2 X-0.6363 Z-0.314 I0.0606 K0.0066 F8.7
G3 X-0.6202 Z-0.3511 I-0.0347 K-0.0371
G1 Z-1.0963
G3 X-0.6386 Z-1.1382 I-0.0572 K0.
G2 X-0.6553 Z-1.1541 I0.6698 K-0.7237
G1 X-0.7119 Z-1.0975 F20.
G0 X-1.8
Z0.2069

; ..   ..   ..   ..   ..   ..   ..   ..   ..   ..   ..   ..   ..
;   Op: finish profile (2)
; Time: 00:00:56
;    Z: -1.5423
S2900 M3
G0 Z0.2069
Z0.0566
X-0.584
G94 G1 X-0.5761 F20.
X-0.5196 Z0. F4.
G2 X-0.5424 Z-0.0239 I0.0243 K-0.046 F8.7
G1 X-0.6463 Z-0.2453
G2 X-0.6336 Z-0.3111 I0.0515 K-0.0242
G3 X-0.6162 Z-0.3511 I-0.0375 K-0.04
G1 Z-1.0963
G3 X-0.6359 Z-1.1412 I-0.0612 K0.
G2 X-0.8701 Z-1.4719 I0.6671 K-0.7208
G3 X-0.9277 Z-1.5097 I-0.0576 K0.0249
G1 X-1.7188
G2 X-1.7447 Z-1.5203 I0. K-0.0373
G1 X-1.8013 Z-1.4637 F20.
G0 Z0.0566
X-0.5735
G1 X-0.5688 F20.
X-0.5122 Z0. F4.
G2 X-0.5397 Z-0.0252 I0.0169 K-0.046 F8.7
G1 X-0.6436 Z-0.2466
G2 X-0.6316 Z-0.3089 I0.0488 K-0.0229
G3 X-0.6132 Z-0.3511 I-0.0395 K-0.0422
G1 Z-1.0963
G3 X-0.6338 Z-1.1434 I-0.0642 K0.
G2 X-0.8674 Z-1.4731 I0.6651 K-0.7186
G3 X-0.9277 Z-1.5127 I-0.0603 K0.0261
G1 X-1.7188
G2 X-1.749 Z-1.531 I0. K-0.0342
G1 X-1.8056 Z-1.4745 F20.
G0 Z0.0566
X-0.5684
G1 X-0.552 F20.
X-0.4954 Z0. F4.
G2 X-0.537 Z-0.0265 I0.0001 K-0.046 F8.7
G1 X-0.6408 Z-0.2479
G2 X-0.6295 Z-0.3067 I0.0461 K-0.0216
G3 X-0.6102 Z-0.3511 I-0.0415 K-0.0444
G1 Z-1.0963
G3 X-0.6318 Z-1.1456 I-0.0672 K0.
G2 X-0.8646 Z-1.4743 I0.663 K-0.7164
G3 X-0.9277 Z-1.5157 I-0.0631 K0.0273
G1 X-1.7188
G2 X-1.7496 Z-1.5423 I0. K-0.0313
G1 X-1.8062 Z-1.4857 F20.
G0 Z0.2069
X-1.8
M9
M5

G30

M30
%
