%
; 1001
; 4" softjaws, zero Z: .02"
; Generated by: Tormach 15LSlantPRO-1.0.02
; generated :  **LOCKED**    2015-12-03   15:23
; CHANGES: 
;
; Machine
; vendor: Tormach
; model: 15L SlantPRO Lathe
;
;
;    **** PUT LATHE INTO GANG TOOL MODE ***
;
; Tool / Op list ..................................................................
; -- tool: 1 Shars MWLNR12-3B             Z : -66.834    CT: 00:07:53
;           op: QCTP:rough profile
;           op: QCTP:face
; -- tool: 21  #3 (.250) Center drill     Z : -5.334     CT: 00:00:02
;           op: Gang:center drill
; -- tool: 22 Autodesk .218 CoHSS drill   Z : -14.981    CT: 00:00:15
;           op: Gang:Drill2
; -- tool: 23 Autodesk O1/4 20tpi         Z : -12.81     CT: 00:00:03
;           op: Gang:Drill3
; -- tool: 2 Shars SVJBR12-3B             Z : -44.374    CT: 00:01:14
;           op: QCTP:finish thread diameter
;           op: QCTP:rough rear of sphere
; -- tool: 8 Dorian SER 017-5-16          Z : -19.078    CT: 00:00:29
;           op: Turr:1/2x20 thread
; -- tool: 24                             Z : -5.107     CT: 00:00:24
;           op: Gang:drill hole chamfer
; -- tool: 20 Iscar Penta 34              Z : -20.502    CT: 00:00:29
;           op: QCTP:front thread relief
; -- tool: 2 Shars SVJBR12-3B             Z : -44.964    CT: 00:00:49
;           op: Turr:finish front sphere
;           op: Turr:finish back sphere
; -- tool: 6 Thinbit Left Dovetail        Z : -9.962     CT: 00:02:36
;           op: QCTP:LeftDovetail
; -- tool: 20 Iscar Penta 34              Z : -8.313     CT: 00:01:53
;           op: QCTP:RightDovetail
; -- tool: 16 Dorian .122 groove          Z : -64.211    CT: 00:15:39
;           op: Turr:rough rear
;           op: Turr:Part-off
; -- tool: 26 Stock Transfer              Z : -10.16     CT: 00:00:13
;           op: Bar Puller
; 
; Approximate tool change time:  ................  :  00:04:02
; total cycle time ( with approx tool change time ):  00:36:02
;
G7
G18
G21
G54
G40
G90
;

G30
M0

; ==============================================================
; Tool: 1 Shars MWLNR12-3B Trigon face turn
; Time: 00:07:53
;    Z: -66.834
;   Op: QCTP:rough profile
T0101
G96 S137 D1400 M3
G0 X-53.34
Z5.508 M8
G0 X-53.674
Z1.881
G95 G1 X-50.8 Z0.444 F0.1016
Z-66.834 F0.1524
X-51.796
X-54.67 Z-65.397 F0.1016
G0 Z1.935
X-52.658
G1 X-49.784 Z0.498 F0.1016
Z-66.834 F0.1524
X-50.8
X-53.674 Z-65.397 F0.1016
G0 Z1.935
X-51.642
G1 X-48.768 Z0.498 F0.1016
Z-66.834 F0.1524
X-49.784
X-52.658 Z-65.397 F0.1016
G0 Z1.935
X-50.626
G1 X-47.752 Z0.498 F0.1016
Z-29.91 F0.1524
G2 X-48.042 Z-31.747 I11.544 K-1.837
G1 Z-66.834
X-48.768
X-51.642 Z-65.397 F0.1016
G0 Z1.935
X-49.61
G1 X-46.736 Z0.498 F0.1016
Z-27.894 F0.1524
G2 X-48.042 Z-31.747 I11.036 K-3.853
G1 X-50.916 Z-30.31 F0.1016
G0 Z1.935
X-48.594
G1 X-45.72 Z0.498 F0.1016
Z-26.667 F0.1524
G2 X-47.244 Z-28.718 I10.528 K-5.079
G1 X-50.118 Z-27.281 F0.1016
G0 Z1.935
X-47.578
G1 X-44.704 Z0.498 F0.1016
Z-25.727 F0.1524
G2 X-46.228 Z-27.232 I10.02 K-6.02
G1 X-49.102 Z-25.795 F0.1016
G0 Z1.935
X-46.562
G1 X-43.688 Z0.498 F0.1016
Z-24.953 F0.1524
G2 X-45.212 Z-26.171 I9.512 K-6.794
G1 X-48.086 Z-24.735 F0.1016
G0 Z1.935
X-45.546
G1 X-42.672 Z0.498 F0.1016
Z-24.475 F0.1524
G2 X-43.509 Z-24.829 I0.529 K-1.049
X-44.196 Z-25.323 I9.422 K-6.918
G1 X-47.07 Z-23.886 F0.1016
G0 Z1.935
X-44.53
G1 X-41.656 Z0.498 F0.1016
Z-24.35 F0.1524
G2 X-43.18 Z-24.648 I0.021 K-1.175
G1 X-46.054 Z-23.211 F0.1016
G0 Z1.935
X-43.514
G1 X-40.64 Z0.498 F0.1016
Z-24.349 F0.1524
X-41.615
G2 X-42.164 Z-24.382 I0. K-1.175
G1 X-45.038 Z-22.945 F0.1016
G0 Z1.935
X-42.498
G1 X-39.624 Z0.498 F0.1016
Z-24.349 F0.1524
X-41.148
X-44.022 Z-22.912 F0.1016
G0 Z1.935
X-41.482
G1 X-38.608 Z0.498 F0.1016
Z-22.67 F0.1524
G2 X-39.057 Z-23.361 I0.95 K-0.691
G1 Z-24.349
X-40.132
X-43.006 Z-22.912 F0.1016
G0 Z1.935
X-40.466
G1 X-37.592 Z0.498 F0.1016
Z-22.237 F0.1524
G2 X-38.078 Z-22.406 I6.464 K-9.51
X-39.057 Z-23.361 I0.685 K-0.954
G1 X-41.931 Z-21.924 F0.1016
G0 Z1.935
X-39.45
G1 X-36.576 Z0.498 F0.1016
Z-21.91 F0.1524
G2 X-38.078 Z-22.406 I5.956 K-9.836
X-38.1 Z-22.414 I0.685 K-0.954
G1 X-40.974 Z-20.977 F0.1016
G0 Z1.935
X-38.434
G1 X-35.56 Z0.498 F0.1016
Z-21.62 F0.1524
G2 X-37.084 Z-22.069 I5.448 K-10.126
G1 X-39.958 Z-20.632 F0.1016
G0 Z1.935
X-37.418
G1 X-34.544 Z0.498 F0.1016
Z-21.363 F0.1524
G2 X-36.068 Z-21.761 I4.94 K-10.384
G1 X-38.942 Z-20.324 F0.1016
G0 Z1.935
X-36.402
G1 X-33.528 Z0.498 F0.1016
Z-21.136 F0.1524
G2 X-35.052 Z-21.488 I4.432 K-10.61
G1 X-37.926 Z-20.051 F0.1016
G0 Z1.935
X-35.386
G1 X-32.512 Z0.498 F0.1016
Z-20.938 F0.1524
G2 X-34.036 Z-21.246 I3.924 K-10.809
G1 X-36.91 Z-19.809 F0.1016
G0 Z1.935
X-34.37
G1 X-31.496 Z0.498 F0.1016
Z-20.767 F0.1524
G2 X-33.02 Z-21.034 I3.416 K-10.98
G1 X-35.894 Z-19.597 F0.1016
G0 Z1.935
X-33.354
G1 X-30.48 Z0.498 F0.1016
Z-20.622 F0.1524
G2 X-32.004 Z-20.849 I2.908 K-11.125
G1 X-34.878 Z-19.412 F0.1016
G0 Z1.935
X-32.338
G1 X-29.464 Z0.498 F0.1016
Z-20.501 F0.1524
G2 X-30.988 Z-20.691 I2.4 K-11.246
G1 X-33.862 Z-19.254 F0.1016
G0 Z1.935
X-31.322
G1 X-28.448 Z0.498 F0.1016
Z-20.404 F0.1524
G2 X-29.972 Z-20.558 I1.892 K-11.342
G1 X-32.846 Z-19.121 F0.1016
G0 Z1.935
X-30.306
G1 X-27.432 Z0.498 F0.1016
Z-20.331 F0.1524
G2 X-28.956 Z-20.45 I1.384 K-11.415
G1 X-31.83 Z-19.013 F0.1016
G0 Z1.935
X-29.29
G1 X-26.416 Z0.498 F0.1016
Z-20.281 F0.1524
G2 X-27.94 Z-20.365 I0.876 K-11.465
G1 X-30.814 Z-18.928 F0.1016
G0 Z1.935
X-28.274
G1 X-25.4 Z0.498 F0.1016
Z-20.254 F0.1524
G2 X-26.924 Z-20.303 I0.368 K-11.493
G1 X-29.798 Z-18.867 F0.1016
G0 Z1.935
X-27.258
G1 X-24.384 Z0.498 F0.1016
Z-20.248 F0.1524
X-24.664
G2 X-25.908 Z-20.265 I0. K-11.499
G1 X-28.782 Z-18.828 F0.1016
G0 Z1.935
X-26.242
G1 X-23.368 Z0.498 F0.1016
Z-20.248 F0.1524
X-24.664
G2 X-24.892 I0. K-11.499
G1 X-27.766 Z-18.811 F0.1016
G0 Z1.935
X-25.226
G1 X-22.352 Z0.498 F0.1016
Z-20.248 F0.1524
X-23.876
X-26.75 Z-18.811 F0.1016
G0 Z1.935
X-24.21
G1 X-21.336 Z0.498 F0.1016
Z-20.248 F0.1524
X-22.86
X-25.734 Z-18.811 F0.1016
G0 Z1.935
X-23.194
G1 X-20.32 Z0.498 F0.1016
Z-20.248 F0.1524
X-21.844
X-24.718 Z-18.811 F0.1016
G0 Z1.935
X-22.178
G1 X-19.304 Z0.498 F0.1016
Z-20.248 F0.1524
X-20.828
X-23.702 Z-18.811 F0.1016
G0 Z1.935
X-21.162
G1 X-18.288 Z0.498 F0.1016
Z-20.248 F0.1524
X-19.812
X-22.686 Z-18.811 F0.1016
G0 Z1.935
X-20.146
G1 X-17.272 Z0.498 F0.1016
Z-20.248 F0.1524
X-18.796
X-21.67 Z-18.811 F0.1016
G0 Z1.935
X-19.13
G1 X-16.256 Z0.498 F0.1016
Z-20.248 F0.1524
X-17.78
X-20.654 Z-18.811 F0.1016
G0 Z1.935
X-18.114
G1 X-15.24 Z0.498 F0.1016
Z-20.248 F0.1524
X-16.764
X-19.638 Z-18.811 F0.1016
G0 Z1.935
X-17.098
G1 X-14.224 Z0.498 F0.1016
Z-20.248 F0.1524
X-15.748
X-18.622 Z-18.811 F0.1016
G0 Z1.935
X-16.082
G1 X-13.208 Z0.498 F0.1016
Z-20.248 F0.1524
X-14.732
X-17.606 Z-18.811 F0.1016
G0 Z1.935
X-15.066
G1 X-12.192 Z0.498 F0.1016
Z-4.166 F0.1524
X-12.826 Z-4.715
G2 X-13.106 Z-5.239 I0.907 K-0.524
G1 Z-20.248
X-13.716
X-16.59 Z-18.811 F0.1016
G0 Z1.935
X-14.05
G1 X-11.176 Z0.498 F0.1016
Z-3.286 F0.1524
X-12.7 Z-4.606
X-15.574 Z-3.169 F0.1016
G0 Z1.935
X-13.034
G1 X-10.16 Z0.498 F0.1016
Z-2.406 F0.1524
X-11.684 Z-3.726
X-14.558 Z-2.289 F0.1016
G0 Z1.935
X-12.018
G1 X-9.144 Z0.498 F0.1016
Z-1.526 F0.1524
X-10.668 Z-2.846
X-13.542 Z-1.409 F0.1016
G0 Z1.935
X-11.179
G1 X-8.305 Z0.498 F0.1016
Z-0.8 F0.1524
X-9.652 Z-1.966
X-12.526 Z-0.529 F0.1016
G0 Z1.935
X-10.339
G1 X-7.466 Z0.498 F0.1016
Z-0.11 F0.1524
G2 X-7.693 Z-0.27 I0.794 K-0.684
G1 X-8.813 Z-1.24
X-11.687 Z0.197 F0.1016
X-11.846 F0.1524
G0 X-53.34
Z5.508

; ..   ..   ..   ..   ..   ..   ..   ..   ..   ..   ..   ..   ..
;   Op: QCTP:face
G96 S137 D1600 M3
G0 X-71.12 Z5.508
Z1.792
G95 G1 X-18.012 F0.1016
X-15.138 Z0.356
X1.587 F0.1524
X-1.286 Z1.792 F0.1016
G0 X-71.12
Z1.615
G1 X-18.012 F0.1016
X-15.138 Z0.178
X1.587 F0.1524
X-1.286 Z1.615 F0.1016
G0 X-71.12
Z1.437
G1 X-18.012 F0.1016
X-15.138 Z0.
X1.587 F0.1524
X-1.286 Z1.437 F0.1016
G0 X-71.12
Z5.508
M9
M5

G30
M0

; ==============================================================
; Tool: 21  #3 (.250) Center drill 
; Time: 00:00:02
;    Z: -5.334
;   Op: Gang:center drill
T2121
G97 S1800 M3
G0 X0.
Z9.144 M8
G0 Z6.604
Z5.334
Z2.254
G94 G1 Z-1.333 F338.6658
G0 Z-1.206
G1 Z-2.921 F338.6658
G0 Z-2.794
G1 Z-4.508 F338.6658
G0 Z-4.381
G1 Z-5.334 F338.6658
G0 Z6.604
Z9.144
M9
M5

; ...pull back to safe Z...
Z52.8

; ==============================================================
; Tool: 22 Autodesk .218 CoHSS drill 
; Time: 00:00:15
;    Z: -14.981
;   Op: Gang:Drill2
T2222
G97 S1600 M3
G0 X0.
Z10.414 M8
G0 Z7.874
Z5.334
Z2.254
G94 G1 Z-1.27 F89.408
G0 Z5.334
Z0.73
G1 Z-2.667 F89.408
G0 Z5.334
Z-0.667
G1 Z-3.937 F89.408
G0 Z5.334
Z-1.937
G1 Z-5.08 F89.408
G0 Z5.334
Z-3.08
G1 Z-6.223 F89.408
G0 Z5.334
Z-4.223
G1 Z-7.366 F89.408
G0 Z5.334
Z-5.366
G1 Z-8.509 F89.408
G0 Z5.334
Z-6.509
G1 Z-9.652 F89.408
G0 Z5.334
Z-7.652
G1 Z-10.795 F89.408
G0 Z5.334
Z-8.795
G1 Z-11.938 F89.408
G0 Z5.334
Z-9.938
G1 Z-13.081 F89.408
G0 Z5.334
Z-11.081
G1 Z-14.224 F89.408
G0 Z5.334
Z-12.224
G1 Z-14.981 F89.408
G0 Z7.874
Z10.414
M9
M5

; ...pull back to safe Z...
Z52.8

; ==============================================================
; Tool: 23 Autodesk O1/4 20tpi 
; Time: 00:00:03
;    Z: -12.81
;   Op: Gang:Drill3
T2323
G97 S500 M3
G0 X0.
Z20.574 M8
G33.1 Z-12.81 K1.27
G0 Z20.574
M9
M5

G30
M0

; ==============================================================
; Tool: 2 Shars SVJBR12-3B Aluminum profile
; Time: 00:01:14
;    Z: -44.374
;   Op: QCTP:finish thread diameter
T0202
G96 S137 D1600 M3
G0 X-15.138
Z1.26 M8
G0 X-7.682
G95 G1 X-7.657 F0.1016
Z-0.01 F0.0508
G2 X-7.675 Z-0.025 I0.299 K-0.193 F0.1016
G1 X-12.598 Z-4.289
X-13.676 Z-3.75
G0 Z1.26
X-7.466
G1 Z-0.01 F0.0508
Z-0.149 F0.1016
X-12.544 Z-4.547
G2 X-12.598 Z-4.648 I0.176 K-0.102
G1 Z-20.264
X-13.676 Z-19.725
X-15.138

; ..   ..   ..   ..   ..   ..   ..   ..   ..   ..   ..   ..   ..
;   Op: QCTP:rough rear of sphere
G96 S137 D1600 M3
G0 X-51.09 Z-28.478
X-48.312
G95 G1 X-48.205 F0.1016
Z-29.748 F0.0508
Z-44.374 F0.1016
X-48.53
X-49.608 Z-43.835
G0 Z-28.475
G1 X-47.862 F0.1016
Z-29.745 F0.0508
G2 X-47.595 Z-33.372 I11.009 K-1.411 F0.1016
G1 Z-44.374
X-48.205
X-49.283 Z-43.835
G0 Z-32.872
G1 X-47.775 F0.1016
G2 X-46.986 Z-34.539 I10.965 K1.716
G1 Z-44.374
X-47.595
X-48.673 Z-43.835
G0 Z-34.052
G1 X-47.273 F0.1016
G2 X-46.376 Z-35.375 I10.714 K2.896
G1 Z-44.374
X-46.986
X-48.063 Z-43.835
G0 Z-34.901
G1 X-46.741 F0.1016
G2 X-45.767 Z-36.051 I10.448 K3.745
G1 Z-44.374
X-46.376
X-47.454 Z-43.835
G0 Z-35.59
G1 X-46.194 F0.1016
G2 X-45.157 Z-36.628 I10.174 K4.434
G1 Z-44.374
X-45.767
X-46.844 Z-43.835
G0 Z-36.18
G1 X-45.638 F0.1016
G2 X-44.813 Z-36.921 I9.896 K5.024
G3 X-44.547 Z-37.257 I-0.912 K-0.554
G1 Z-44.374
X-45.157
X-46.235 Z-43.835
G0 Z-36.796
G1 X-44.962 F0.1016
G2 X-44.813 Z-36.921 I9.559 K5.64
G3 X-44.502 Z-37.476 I-0.912 K-0.554
G1 Z-43.612
G2 X-44.175 Z-43.962 I0.457 K0.
G1 X-43.938 Z-44.062
Z-44.374
X-44.547
X-45.625 Z-43.835
G0 Z-43.658
G1 X-44.497 F0.1016
G2 X-44.175 Z-43.962 I0.455 K0.046
G1 X-43.566 Z-44.218
Z-44.374
X-43.938
X-45.015 Z-43.835
G0 Z-43.882
G1 X-44.326 F0.1016
G2 X-44.175 Z-43.962 I0.369 K0.27
G1 X-43.194 Z-44.374
X-43.566
X-44.644 Z-43.835
X-47.013
G0 X-51.09
M9
M5

G30
M0

; ==============================================================
; Tool: 8 Dorian SER 017-5-16 2-ER16 20UN
; Time: 00:00:29
;    Z: -19.078
;   Op: Turr:1/2x20 thread
T0808
G97 S450 M3
G0 X15.24
Z2.857 M8
G76 P1.27 Z-18.681 I-2.54 J0.576 K1.93 R2. Q30. H1
M9
M5

G30
M0

; ==============================================================
; Tool: 24   
; Time: 00:00:24
;    Z: -5.107
;   Op: Gang:drill hole chamfer
T2424
G97 S1000 M3
G0 X0.
Z8.89 M8
G0 Z7.62
Z5.08
G94 G1 Z-5.107 F25.4
G0 Z7.62
Z8.89
M9
M5

G30
M0

; ==============================================================
; Tool: 20 Iscar Penta 34 1.5mm grooving
; Time: 00:00:29
;    Z: -20.502
;   Op: QCTP:front thread relief
T2020
G96 S107 D1600 M3
G0 X-53.34
Z-19.788 M8
G0 X-29.51
G95 G1 X-25.446 F0.2032
X-13.614 F0.0508
X-29.51 F0.254
G0 Z-19.994
G1 X-25.446 F0.2032
X-13.533 F0.0508
X-25.826 F0.254
G0 Z-20.248
G1 X-14.275 F0.254
X-12.243 F0.2032
X-12.703 Z-20.115 F0.0508
G3 X-13.105 Z-19.788 I0.202 K0.35
G1 X-14.942 Z-20.223 F0.254
X-30.783
G0 X-30.79
Z-20.248
G1 X-12.243 F0.2032
X-25.446 F0.0508
X-12.243 F0.254
X-25.846
G0 Z-20.455
G1 X-12.7 F0.254
X-10.668 F0.2032
Z-20.409 F0.0508
X-12.449 Z-19.895
G3 X-12.595 Z-19.788 I0.075 K0.13
G1 X-14.166 Z-20.433 F0.254
G0 Z-19.933
G1 X-12.411 F0.254
X-10.668 Z-20.455 F0.2032
Z-20.502 F0.0508
X-25.446
X-26.882 Z-19.783 F0.254
X-33.663
G0 X-53.34
M9
M5

G30
M0

; ==============================================================
; Tool: 2 Shars SVJBR12-3B Aluminum face turn profile
; Time: 00:00:49
;    Z: -44.964
;   Op: Turr:finish front sphere
T0202
G96 S137 D1600 M3
G0 X51.09
Z-11.697 M8
G0 X17.749
G95 G1 Z-14.237 F0.0508
G2 X28.379 Z-20.502 I6.35 K0.
G3 X37.96 Z-22.489 I-1.857 K-11.245 F0.1016
X38.854 Z-23.375 I-0.626 K-0.872
G1 X39.931 Z-22.836
G0 Z-17.966
X25.446
G1 Z-20.506 F0.0508
Z-20.509 F0.1016
G3 X37.782 Z-22.613 I-0.391 K-11.238
X38.549 Z-23.375 I-0.537 K-0.748
G1 X39.627 Z-22.836
X40.961
G0 X51.09

; ..   ..   ..   ..   ..   ..   ..   ..   ..   ..   ..   ..   ..
;   Op: Turr:finish back sphere
G96 S137 D1600 M3
G0 Z-22.51
X51.09
X47.144
G95 G1 X43.552 Z-24.306 F0.0508
G2 X43.255 Z-24.665 I0.359 K-0.359
G1 Z-24.832 F0.1016
G3 X43.345 Z-24.889 I-0.82 K-0.692
X44.467 Z-37.766 I-9.341 K-6.857
G2 X44.299 Z-38.066 I0.494 K-0.3
G1 Z-44.202
G3 X43.623 Z-44.927 I-0.946 K0.
G1 X43.534 Z-44.964
X44.32 Z-44.642
G0 X48.039
Z-22.677
X47.144
G1 X43.552 Z-24.473 F0.0508
G2 X43.255 Z-24.832 I0.359 K-0.359
G1 Z-25.086 F0.1016
G3 X44.207 Z-37.687 I-9.295 K-6.66
G2 X43.994 Z-38.066 I0.624 K-0.379
G1 Z-44.202
G3 X43.427 Z-44.81 I-0.794 K0.
G1 X43.255 Z-44.883
Z-44.964
X43.973 Z-44.605
G0 X51.09
M9
M5

G30
M0

; **error**error**error
;  Error file: C:\Users\Public\Documents\Autodesk\Inventor HSM 2015\PassthroughCode\fail.nc not found ! 
; **error**error**error
;  #####################################################
; Notes on thinbit bits
;     bit need to be swapped
;     between operations
;  #####################################################


; ==============================================================
; Tool: 6 Thinbit Left Dovetail Thinbit Left Dovetail
; Time: 00:02:36
;    Z: -9.962
;   Op: QCTP:LeftDovetail
T0606
G96 S137 D1400 M3
G0 X-79.2632 ( start point )
Z-7.4701 M8
G1 G95 F0.0381
G1 X-77.323 Z-8.440 ( plunge 1 )
X-79.263 Z-7.470
X-76.784 Z-8.71 ( plunge 2 )
X-79.263 Z-7.47
X-76.246 Z-8.979 ( plunge 3 )
X-79.263 Z-7.47
X-75.707 Z-9.251 ( plunge 4 )
X-79.263 Z-7.47
G1 X-75.281 Z-9.464 ( plunge 5 )
G1 X-79.263 Z-7.47 ( retract )
X-82.245 Z-9.22 ( starting point )
G2 X-79.314 Z-8.499 I-0.33 K2.52
G3 X-77.302 Z-8.499 I0.503 K-0.503
G1 X-75.326 Z-9.487
G1 X-79.314 Z-7.493
G1 X-82.245 Z-9.22
G2 X-79.314 Z-8.499 I-0.33 K2.52
G3 X-77.119 Z-8.611 I0.503 K-0.503
G1 X-75.712 Z-9.68
G1 X-75.712 Z-8.12038
G1 X-79.263 Z-7.47
G1 X-82.906 Z-6.703
G1 X-82.225 Z-9.296
G2 X-79.202 Z-8.552 I-0.34 K2.593
G3 X-77.119 Z-8.773 I0.45 K-0.45
G1 X-76.063 Z-9.962
G1 X-75.712 Z-9.248
G1 X-79.263 Z-7.47
G0 Z6.35

M9
M5

G30
M0

; ==============================================================
; Tool: 20 Iscar Penta 34 1.5mm grooving
; Time: 00:01:53
;    Z: -8.313
;   Op: QCTP:RightDovetail
T2020
G96 S107 D1600 M3
G0 X-73.508
Z-4.854 M8
G1 G95 F0.038
G3 X-74.955 Z-6.32 I-2.52 K0.33
G2 X-74.955 Z-7.325 I0.503 K-0.503
G1 X-72.979 Z-8.313
X-74.955 Z-7.325
X-76.967 Z-6.32
Z-4.186
X-73.508 Z-4.854
G3 X-74.955 Z-6.32 I-2.52 K0.33
G2 X-74.732 Z-7.417 I0.503 K-0.503
G1 X-72.593 Z-8.12
X-73.457 Z-8.12
X-77.013 Z-6.342
X-78.547 Z-4.524
X-73.36 Z-4.863
G3 X-74.849 Z-6.373 I-2.593 K0.34
G2 X-74.402 Z-7.414 I0.45 K-0.45
G1 X-72.024 Z-7.945
X-73.457 Z-8.12
X-77.013 Z-6.342
G0 Z6.35
M5
M9

G30
M0

; ==============================================================
; Tool: 16 Dorian .122 groove Slot Grip
; Time: 00:15:39
;    Z: -64.211
;   Op: Turr:rough rear
T1616
G96 S107 D1600 M3
G0 X55.88
Z8.607 M8
G0 Z-43.409
G95 G1 X51.816 F0.0508
X44.299
X55.88
G0 Z-44.399
G1 X51.816 F0.0508
X41.375
X55.364
G0 X55.88
Z-45.39
G1 X51.816 F0.0508
X25.705
X50.388
X51.816
X55.363
G0 X55.88
Z-46.38
G1 X51.816 F0.0508
X25.705
X42.84
X44.872 Z-45.364
X52.914
G0 X55.88
Z-47.371
G1 X51.816 F0.0508
X25.705
X39.984
X42.016 Z-46.355
X52.445
G0 X55.88
Z-48.362
G1 X51.816 F0.0508
X25.705
X27.737 Z-47.346
X52.445
G0 X55.88
Z-49.352
G1 X51.816 F0.0508
X25.705
X27.737 Z-48.336
X52.445
G0 X55.88
Z-50.343
G1 X51.816 F0.0508
X25.705
X27.737 Z-49.327
X52.445
G0 X55.88
Z-51.333
G1 X51.816 F0.0508
X25.705
X27.737 Z-50.317
X52.445
G0 X55.88
Z-52.324
G1 X51.816 F0.0508
X25.705
X27.737 Z-51.308
X52.445
G0 X55.88
Z-53.315
G1 X51.816 F0.0508
X25.705
X27.737 Z-52.299
X52.445
G0 X55.88
Z-54.305
G1 X51.816 F0.0508
X25.705
X27.737 Z-53.289
X52.445
G0 X55.88
Z-55.296
G1 X51.816 F0.0508
X25.705
X27.737 Z-54.28
X52.445
G0 X55.88
Z-56.286
G1 X51.816 F0.0508
X25.705
X27.737 Z-55.27
X52.445
G0 X55.88
Z-57.277
G1 X51.816 F0.0508
X25.705
X27.737 Z-56.261
X52.445
G0 X55.88
Z-58.268
G1 X51.816 F0.0508
X25.705
X27.737 Z-57.252
X52.445
G0 X55.88
Z-59.258
G1 X51.816 F0.0508
X25.705
X27.737 Z-58.242
X52.445
G0 X55.88
Z-60.249
G1 X51.816 F0.0508
X25.705
X27.737 Z-59.233
X52.445
G0 X55.88
Z-61.239
G1 X51.816 F0.0508
X25.705
X27.737 Z-60.223
X52.445
G0 X55.88
Z-62.23
G1 X51.816 F0.0508
X25.705
X27.737 Z-61.214
X52.432
G0 X55.88
Z-63.221
G1 X51.816 F0.0508
X24.39
X25.782
X27.814 Z-62.205
X52.432
G0 X55.88
Z-64.211
G1 X51.816 F0.0508
X22.629
X25.707
X27.739 Z-63.195
X48.365
G0 Z-43.409
G1 X48.363 F0.0508
X44.299
G3 X44.045 Z-43.629 I-0.254 K0.
G1 X40.437 Z-44.67
G3 X40.183 Z-44.704 I-0.127 K0.22
G1 X27.578
G2 X27.234 Z-44.734 I0. K-0.508
G1 X25.705 Z-45.009
Z-62.694
G3 X25.451 Z-62.914 I-0.254 K0.
G1 X22.66 Z-63.72
G3 X22.589 Z-63.737 I-0.127 K0.22
G1 Z-64.211
X25.731 Z-62.922
X27.372
G0 X55.88
Z8.607

; ..   ..   ..   ..   ..   ..   ..   ..   ..   ..   ..   ..   ..
;   Op: Turr:Part-off
G96 S107 D1600 M3
G0 X53.34 Z8.607
Z-63.754
G95 G1 X31.496 F0.0508
X35.56
X11.176
X15.24
X-0.203
X53.34
G0 Z8.607
M9
M5

G30
M0

; ==============================================================
; Tool: 26   
; Time: 00:00:13
;    Z: -10.16
;   Op: Bar Puller
T2626
G94
G0 X0.
G0 Z-6.35
G1 Z-10.16 F127
M64 P2
G4 P1
G1 Z-2.54
M65 P2
G4 P1
G0 Z25.4


G30
M0


M30
%
