%
;   program:   internal test
;              Zero Z: 0
;
;             CAM: Fusion 360 CAM 2.0.1870
;        Document: Internal test part v25
;  Post Processor: Tormach 15LSlantPRO-1.1.10
;
;  ***LOCKED***  : Sunday, January 24, 2016 6:45:58 PM
; 
;
;
;    **** PUT LATHE INTO GANG TOOL MODE ***
;
; Tool / Op list ..............................................................................
; -- tool: 1 Dorian MWLNR12-3B                     Z : 0.                        CT: 00:00:05
;           op: TURR:face
; -- tool: 3 Triangle                              Z : -1.0938                   CT: 00:01:16
;           op: QCTP:rough profile
; -- tool: 2 Shars SVJBR12-3B                      Z : -1.1005                   CT: 00:00:22
;           op: TURR:profile front diameter
;           op: TURR:profile rear section
;           op: TURR:profile front diameter (2)
; -- tool: 8 Dorian SER 017-5-16                   Z : -0.2635                   CT: 00:00:24
;           op: QCTP:Thread1
; -- tool: 12                                      Z : -0.5                      CT: 00:00:04
;           op: QCTP:rear thread groove
; -- tool: 21  #3 (.250) Center drill              Z : -0.12                     CT: 00:00:02
;           op: GANG:center drill
; -- tool: 22 Import 1/4 HSS drill                 Z : -1.1676                   CT: 00:00:25
;           op: GANG: drill through
; -- tool: 11 US Shop Tools Mini Boring Bar .208   Z : -0.5188    X : -0.21      CT: 00:01:31
;           op: QCTP:inner bore
; -- tool: 23 Sowa 5/16-24 H3 HSS-PM               Z : -1.1425                   CT: 00:00:08
;           op: GANG:tap 5/16-24
; -- tool: 8 Dorian SER 017-5-16                   Z : -0.3751    X : 0.461      CT: 00:00:21
;           op: TURR:internal thread
; 
; Approximate tool change time:  ................  :  00:04:09
; total cycle time ( with approx tool change time ):  00:08:48
;
G7
G18
G20
G54
G40
G90

G30
M0

; ==============================================================
; Tool: 1 Dorian MWLNR12-3B Trigon face/turn - Aluminum
; Time: 00:00:05
;    Z: 0.
;   Op: TURR:face
T0101
G96 S280 D1600 M3
G0 X-1.35
Z0.1469 M8
G0 Z0.0566
G95 G1 X-1.3631 F0.004
X-1.25 Z0.
X0.0312 F0.006
X-0.0819 Z0.0566 F0.004
G0 X-1.35
Z0.1469
M9
M5

G30
M0

; ==============================================================
; Tool: 3 Triangle  TriangleTestTool
; Time: 00:01:16
;    Z: -1.0938
;   Op: QCTP:rough profile
T0303
G97 S1600 M3
G0 X-1.35
Z0.1469 M8
G0 Z0.0015
X-1.3349
G95 G1 X-1.3331 F0.012
X-1.22 Z-0.055 F0.006
Z-1.0938 F0.008
X-1.2492
X-1.3623 Z-1.0372 F0.012
G0 Z0.0061
X-1.3031
G1 X-1.19 Z-0.0504 F0.006
Z-1.0938 F0.008
X-1.22
X-1.3331 Z-1.0372 F0.012
G0 Z0.0062
X-1.2731
G1 X-1.16 Z-0.0504 F0.006
Z-1.0938 F0.008
X-1.19
X-1.3031 Z-1.0372 F0.012
G0 Z0.0062
X-1.2431
G1 X-1.13 Z-0.0504 F0.006
Z-1.0938 F0.008
X-1.16
X-1.2731 Z-1.0372 F0.012
G0 Z0.0062
X-1.2131
G1 X-1.1 Z-0.0504 F0.006
Z-1.0938 F0.008
X-1.13
X-1.2431 Z-1.0372 F0.012
G0 Z0.0062
X-1.1831
G1 X-1.07 Z-0.0504 F0.006
Z-1.0938 F0.008
X-1.1
X-1.2131 Z-1.0372 F0.012
G0 Z0.0062
X-1.1531
G1 X-1.04 Z-0.0504 F0.006
Z-1.0938 F0.008
X-1.07
X-1.1831 Z-1.0372 F0.012
G0 Z0.0062
X-1.1231
G1 X-1.01 Z-0.0504 F0.006
Z-1.0938 F0.008
X-1.04
X-1.1531 Z-1.0372 F0.012
G0 Z0.0062
X-1.0931
G1 X-0.98 Z-0.0504 F0.006
Z-0.5935 F0.008
G2 X-1.008 Z-0.6388 I0.0662 K-0.0453
G1 Z-1.0938
X-1.01
X-1.1231 Z-1.0372 F0.012
G0 Z0.0062
X-1.0631
G1 X-0.95 Z-0.0504 F0.006
Z-0.577 F0.008
G2 X-0.995 Z-0.6071 I0.0512 K-0.0618
G1 X-1.1081 Z-0.5505 F0.012
G0 Z0.0062
X-1.0331
G1 X-0.92 Z-0.0504 F0.006
Z-0.5672 F0.008
G2 X-0.965 Z-0.5841 I0.0362 K-0.0716
G1 X-1.0781 Z-0.5275 F0.012
G0 Z0.0062
X-1.0031
G1 X-0.89 Z-0.0504 F0.006
Z-0.5614 F0.008
G2 X-0.935 Z-0.5715 I0.0212 K-0.0774
G1 X-1.0481 Z-0.5149 F0.012
G0 Z0.0062
X-0.9731
G1 X-0.86 Z-0.0504 F0.006
Z-0.5104 F0.008
G2 X-0.882 Z-0.5392 I0.0322 K-0.0288
G1 Z-0.5604
G2 X-0.905 Z-0.5638 I0.0173 K-0.0784
G1 X-1.0181 Z-0.5073 F0.012
G0 Z0.0062
X-0.9431
G1 X-0.83 Z-0.0504 F0.006
Z-0.4996 F0.008
G2 X-0.875 Z-0.5222 I0.0172 K-0.0397
G1 X-0.9881 Z-0.4656 F0.012
G0 Z0.0062
X-0.9131
G1 X-0.8 Z-0.0504 F0.006
Z-0.4961 F0.008
G2 X-0.845 Z-0.5038 I0.0022 K-0.0432
G1 X-0.9581 Z-0.4472 F0.012
G0 Z0.0062
X-0.8901
G1 X-0.777 Z-0.0504 F0.006
Z-0.496 F0.008
X-0.7955
G2 X-0.815 Z-0.4971 I0. K-0.0432
G1 X-0.9281 Z-0.4405 F0.012
G0 Z0.0062
X-0.8745
G1 X-0.8674 F0.012
X-0.7542 Z-0.0504 F0.006
G2 X-0.758 Z-0.0624 I0.0374 K-0.012 F0.008
G1 Z-0.496
X-0.792
X-0.9051 Z-0.4394 F0.012
X-0.94
G0 X-1.35
Z0.1469
M9
M5

G30
M0

; ==============================================================
; Tool: 2 Shars SVJBR12-3B Aluminum profile
; Time: 00:00:22
;    Z: -1.1005
;   Op: TURR:profile front diameter
T0202
G96 S500 D1600 M3
G0 X1.1
Z0.1469 M8
G0 Z0.005
X0.8864
G95 G1 X0.8631 F0.004
X0.75 Z-0.0515 F0.002
Z-0.4748 F0.004
X0.8631 Z-0.4183
X0.91
G0 X1.1
Z0.1469

; ..   ..   ..   ..   ..   ..   ..   ..   ..   ..   ..   ..   ..
;   Op: TURR:profile rear section
; Time: 00:00:07
;    Z: -0.496
G96 S500 D1600 M3
G0 X1.1 Z-0.4287
X0.938
G95 G1 X0.8292 F0.004
X0.7492 F0.002
G3 X0.7466 Z-0.43 I-0.0116 K0.011 F0.004
G1 X0.7319 Z-0.4361
Z-0.496
X0.7619
X0.8184 Z-0.4677
G0 Z-0.4361
G1 X0.8119 F0.004
X0.7319 F0.002
X0.7119 Z-0.4445 F0.004
Z-0.496
X0.7124
X0.7419
X0.7984 Z-0.4677
G0 Z-0.4445
G1 X0.7919 F0.004
X0.7119 F0.002
X0.6919 Z-0.4529 F0.004
Z-0.494
X0.7021 Z-0.4953
G2 X0.7124 Z-0.496 I0.0052 K0.0193
G1 X0.7219
X0.7784 Z-0.4677
G0 Z-0.4529
G1 X0.7719 F0.004
X0.6919 F0.002
X0.6799 Z-0.4579 F0.004
Z-0.4924
X0.7019 Z-0.4953
X0.7584 Z-0.467
X0.7599
G0 Z-0.4579
G1 X0.6799 F0.002
X0.668 Z-0.4629 F0.004
Z-0.4908
X0.6899 Z-0.4937
X0.7465 Z-0.4654
X1.0145
G0 X1.1
Z0.1469

; ..   ..   ..   ..   ..   ..   ..   ..   ..   ..   ..   ..   ..
;   Op: TURR:profile front diameter (2)
; Time: 00:00:11
;    Z: -1.1005
G96 S500 D1600 M3
G0 X1.35 Z0.1469
Z-0.4848
X1.0312
G95 G1 X0.9951 F0.004
X0.882 Z-0.5414 F0.002
Z-0.5555 F0.004
G2 X0.888 Z-0.5585 I0.003 K0.
G1 X0.894
G3 X0.9116 Z-0.5592 I0. K-0.057
G1 X1.0248 Z-0.5026
X1.0492
G0 X1.1211
Z-1.0182
G1 X1.008 Z-1.0748 F0.002
Z-1.1005 F0.004
X1.1211 Z-1.0439
G0 Z-0.4434
X0.9711
G1 X0.858 Z-0.5 F0.002
Z-0.5021 F0.004
G3 X0.874 Z-0.516 I-0.008 K-0.0139
G1 Z-0.5555
G2 X0.888 Z-0.5625 I0.007 K0.
G1 X0.894
G3 X1. Z-0.6155 I0. K-0.053
G1 Z-1.1005
X1.1131 Z-1.0439
X1.16
G0 X1.35
Z0.1469
M9
M5

G30
M0

; ==============================================================
; Tool: 8 Dorian SER 017-5-16 2-ER16 20UN
; Time: 00:00:24
;    Z: -0.2635
;   Op: QCTP:Thread1
T0808
G97 S450 M3
G0 X-0.85
Z0.1469 M8
G0 Z0.2353
Z0.1469
G76 P0.05 Z-0.4533 I0.1 J0.0239 K0.08 R2. Q30. H1
G0 X-0.85 Z0.1469
M9
M5

G30
M0

; ==============================================================
; Tool: 12   .0591 R.0039  groove tool
; Time: 00:00:04
;    Z: -0.5
;   Op: QCTP:rear thread groove
T1212
G96 S450 D1200 M3
G0 X-1.1
Z0.1469 M8
G0 Z-0.4122
X-1.0339
G95 G1 X-0.8611 F0.005
X-0.7479 Z-0.4688
G2 X-0.7421 Z-0.4718 I0.0069 K0.0039 F0.002
G1 X-0.6661 Z-0.4937
X-0.8192 Z-0.4705 F0.005
X-0.889
G0 Z-0.5
G1 X-0.8806 F0.005
X-0.7206
G2 X-0.7061 Z-0.499 I0. K0.0281 F0.002
G1 X-0.6661 Z-0.4937
X-0.8259 Z-0.4976 F0.005
X-1.0148
G0 X-1.1
Z0.1469
M9
M5

G30
M0

; ==============================================================
; Tool: 21  #3 (.250) Center drill 
; Time: 00:00:02
;    Z: -0.12
;   Op: GANG:center drill
T2121
G97 S1800 M3
G0 X0.
Z0.32 M8
G0 Z0.22
Z0.1
G94 G1 Z-0.03 F13.3333
G0 Z0.01
G1 Z-0.075 F13.3333
G0 Z-0.035
G1 Z-0.115 F13.3333
G0 Z-0.075
G1 Z-0.12 F13.3333
G0 Z0.32
M9
M5

; ...pull back to safe Z...
Z2.35

; ==============================================================
; Tool: 22 Import 1/4 HSS drill 
; Time: 00:00:25
;    Z: -1.1676
;   Op: GANG: drill through
T2222
G97 S1600 M3
G0 X0.
Z0.61 M8
G0 Z0.31
Z0.21
Z0.09
G94 G1 Z-0.08 F3.52
G0 Z0.21
Z0.
G1 Z-0.165 F3.52
G0 Z0.21
Z-0.085
G1 Z-0.245 F3.52
G0 Z0.21
Z-0.165
G1 Z-0.32 F3.52
G0 Z0.21
Z-0.24
G1 Z-0.39 F3.52
G0 Z0.21
Z-0.31
G1 Z-0.455 F3.52
G0 Z0.21
Z-0.375
G1 Z-0.515 F3.52
G0 Z0.21
Z-0.435
G1 Z-0.575 F3.52
G0 Z0.21
Z-0.495
G1 Z-0.635 F3.52
G0 Z0.21
Z-0.555
G1 Z-0.695 F3.52
G0 Z0.21
Z-0.615
G1 Z-0.755 F3.52
G0 Z0.21
Z-0.675
G1 Z-0.815 F3.52
G0 Z0.21
Z-0.735
G1 Z-0.875 F3.52
G0 Z0.21
Z-0.795
G1 Z-0.935 F3.52
G0 Z0.21
Z-0.855
G1 Z-0.995 F3.52
G0 Z0.21
Z-0.915
G1 Z-1.055 F3.52
G0 Z0.21
Z-0.975
G1 Z-1.115 F3.52
G0 Z0.21
Z-1.035
G1 Z-1.1676 F3.52
G0 Z0.31
Z0.61
M9
M5

G30
M0
;some test
;pass though
;code
;on multiple
;lines

; ==============================================================
; Tool: 11 US Shop Tools Mini Boring Bar .208 CV7 TiN : HiTemp Alloy SST
; Time: 00:01:31
;    Z: -0.5188
;   Op: QCTP:inner bore
T1111
G96 S280 D1600 M3
G0 X-0.21
Z0.1469 M8
G0 Z-0.0398
G95 G1 X-0.2288 F0.01
X-0.25 Z-0.0504
Z-0.5188 F0.004
X-0.24
X-0.2188 Z-0.5082 F0.01
G0 Z-0.0398
X-0.2388
G1 X-0.26 Z-0.0504 F0.01
Z-0.5188 F0.004
X-0.25
X-0.2288 Z-0.5082 F0.01
G0 Z-0.0398
X-0.2488
G1 X-0.27 Z-0.0504 F0.01
Z-0.5155 F0.004
G3 X-0.268 Z-0.5188 I-0.005 K-0.0033
G1 X-0.26
X-0.2388 Z-0.5082 F0.01
G0 Z-0.0398
X-0.2588
G1 X-0.28 Z-0.0504 F0.01
Z-0.5118 F0.004
X-0.2738 Z-0.5136
G3 X-0.268 Z-0.5188 I-0.0031 K-0.0051
G1 X-0.2468 Z-0.5082 F0.01
G0 Z-0.0398
X-0.2688
G1 X-0.29 Z-0.0504 F0.01
Z-0.5088 F0.004
X-0.275 Z-0.5133
X-0.2538 Z-0.5027 F0.01
G0 Z-0.0398
X-0.2788
G1 X-0.3 Z-0.0504 F0.01
Z-0.5058 F0.004
X-0.285 Z-0.5103
X-0.2638 Z-0.4997 F0.01
G0 Z-0.0398
X-0.2888
G1 X-0.31 Z-0.0504 F0.01
Z-0.5028 F0.004
X-0.295 Z-0.5073
X-0.2738 Z-0.4967 F0.01
G0 Z-0.0398
X-0.2988
G1 X-0.32 Z-0.0504 F0.01
Z-0.4998 F0.004
X-0.305 Z-0.5043
X-0.2838 Z-0.4937 F0.01
G0 Z-0.0398
X-0.3088
G1 X-0.33 Z-0.0504 F0.01
Z-0.4968 F0.004
X-0.315 Z-0.5013
X-0.2938 Z-0.4907 F0.01
G0 Z-0.0398
X-0.3188
G1 X-0.34 Z-0.0504 F0.01
Z-0.4937 F0.004
X-0.325 Z-0.4983
X-0.3038 Z-0.4876 F0.01
G0 Z-0.0398
X-0.3288
G1 X-0.35 Z-0.0504 F0.01
Z-0.4907 F0.004
X-0.335 Z-0.4953
X-0.3138 Z-0.4846 F0.01
G0 Z-0.0398
X-0.3388
G1 X-0.36 Z-0.0504 F0.01
Z-0.4877 F0.004
X-0.345 Z-0.4922
X-0.3238 Z-0.4816 F0.01
G0 Z-0.0398
X-0.3488
G1 X-0.37 Z-0.0504 F0.01
Z-0.4847 F0.004
X-0.355 Z-0.4892
X-0.3338 Z-0.4786 F0.01
G0 Z-0.0398
X-0.3588
G1 X-0.38 Z-0.0504 F0.01
Z-0.4817 F0.004
X-0.365 Z-0.4862
X-0.3438 Z-0.4756 F0.01
G0 Z-0.0398
X-0.3688
G1 X-0.39 Z-0.0504 F0.01
Z-0.4787 F0.004
X-0.375 Z-0.4832
X-0.3538 Z-0.4726 F0.01
G0 Z-0.0398
X-0.3788
G1 X-0.4 Z-0.0504 F0.01
Z-0.4757 F0.004
X-0.385 Z-0.4802
X-0.3638 Z-0.4696 F0.01
G0 Z-0.0398
X-0.3888
G1 X-0.41 Z-0.0504 F0.01
Z-0.4727 F0.004
X-0.395 Z-0.4772
X-0.3738 Z-0.4666 F0.01
G0 Z-0.0398
X-0.3988
G1 X-0.42 Z-0.0504 F0.01
Z-0.4697 F0.004
X-0.405 Z-0.4742
X-0.3838 Z-0.4636 F0.01
G0 Z-0.0398
X-0.4088
G1 X-0.43 Z-0.0504 F0.01
Z-0.4667 F0.004
X-0.415 Z-0.4712
X-0.3938 Z-0.4606 F0.01
G0 Z-0.0398
X-0.4188
G1 X-0.44 Z-0.0504 F0.01
Z-0.4637 F0.004
X-0.425 Z-0.4682
X-0.4038 Z-0.4576 F0.01
G0 Z-0.0398
X-0.4288
G1 X-0.45 Z-0.0504 F0.01
Z-0.4607 F0.004
X-0.435 Z-0.4652
X-0.4138 Z-0.4546 F0.01
G0 Z-0.0398
X-0.4388
G1 X-0.46 Z-0.0504 F0.01
Z-0.4577 F0.004
X-0.445 Z-0.4622
X-0.4238 Z-0.4516 F0.01
G0 Z-0.0398
X-0.4488
G1 X-0.47 Z-0.0504 F0.01
Z-0.4547 F0.004
X-0.455 Z-0.4592
X-0.4338 Z-0.4486 F0.01
G0 Z-0.0398
X-0.4588
G1 X-0.48 Z-0.0504 F0.01
Z-0.4517 F0.004
X-0.465 Z-0.4562
X-0.4438 Z-0.4456 F0.01
G0 Z-0.0398
X-0.4688
G1 X-0.49 Z-0.0504 F0.01
Z-0.4487 F0.004
X-0.475 Z-0.4532
X-0.4538 Z-0.4426 F0.01
G0 Z-0.0398
X-0.4788
G1 X-0.5 Z-0.0504 F0.01
Z-0.4457 F0.004
X-0.485 Z-0.4502
X-0.4638 Z-0.4396 F0.01
G0 Z-0.0398
X-0.4888
G1 X-0.51 Z-0.0504 F0.01
Z-0.4427 F0.004
X-0.495 Z-0.4472
X-0.4738 Z-0.4366 F0.01
G0 Z-0.0398
X-0.4988
G1 X-0.52 Z-0.0504 F0.01
Z-0.4397 F0.004
X-0.505 Z-0.4442
X-0.4838 Z-0.4336 F0.01
G0 Z-0.0398
X-0.5088
G1 X-0.53 Z-0.0504 F0.01
Z-0.4367 F0.004
X-0.515 Z-0.4412
X-0.4938 Z-0.4306 F0.01
G0 Z-0.0398
X-0.5188
G1 X-0.54 Z-0.0504 F0.01
Z-0.4337 F0.004
X-0.525 Z-0.4382
X-0.5038 Z-0.4276 F0.01
G0 Z-0.0398
X-0.5288
G1 X-0.55 Z-0.0504 F0.01
Z-0.4307 F0.004
X-0.535 Z-0.4352
X-0.5138 Z-0.4246 F0.01
G0 Z-0.0398
X-0.535
G1 X-0.5383 F0.01
X-0.5595 Z-0.0504
Z-0.4278 F0.004
X-0.545 Z-0.4322
X-0.5238 Z-0.4216 F0.01
G0 Z-0.0398
X-0.535
G1 X-0.5438 F0.01
X-0.565 Z-0.0504
Z-0.4262 F0.004
X-0.5545 Z-0.4293
X-0.5333 Z-0.4187 F0.01
G0 Z-0.0398
X-0.539
G1 X-0.5478 F0.01
X-0.569 Z-0.0504
Z-0.4273 F0.004
X-0.2759 Z-0.5153
G3 X-0.272 Z-0.5188 I-0.0021 K-0.0034
G1 X-0.2508 Z-0.5082 F0.01
G0 Z-0.0398
X-0.539
G1 X-0.5478 F0.01
X-0.569 Z-0.0504
Z-0.4273 F0.004
X-0.2759 Z-0.5153
G3 X-0.272 Z-0.5188 I-0.0021 K-0.0034
G1 X-0.2508 Z-0.5082 F0.01
X-0.2486
G0 X-0.21
Z0.1469
M9
M5

G30
M0

; ==============================================================
; Tool: 23 Sowa 5/16-24 H3 HSS-PM 
; Time: 00:00:08
;    Z: -1.1425
;   Op: GANG:tap 5/16-24
T2323
G97 S450 M3
G0 X0.
Z0.3852 M8
G33.1 Z-1.1425 K0.0417
G0 Z0.3852
M9
M5

G30
M0

; ==============================================================
; Tool: 8 Dorian SER 017-5-16 SNR 0265-K08 small internal thread
; Time: 00:00:21
;    Z: -0.3751
;   Op: TURR:internal thread
T0808
G97 S450 M3
G0 X0.461
Z0.1666 M8
G0 Z0.2873
Z0.1666
G76 P0.055 Z-0.3751 I0.1 J0.0227 K0.076 R2. Q30. H1
G0 X0.461 Z0.1666
M9
M5

G30
M0

M30
%
