%
;   program:   actionsTest
;              Zero: Z+.02
;
;             CAM: Fusion 360 CAM 2.0.1791
;        Document: test Part 1 v15
;  Post Processor: Tormach 15LSlantPRO-1.1.10
;
;  ***LOCKED***  : Friday, January 22, 2016 5:10:40 PM
; 
;
;
;    **** PUT LATHE INTO GANG TOOL MODE ***
;
; Tool / Op list ..............................................................................
; -- tool: 1 Shars MWLNR12-3B             Z : -2.6312                   CT: 00:07:53
;           op: QCTP:rough profile
;           op: QCTP:face
; -- tool: 21  #3 (.250) Center drill     Z : -0.21                     CT: 00:00:02
;           op: Gang:center drill
; -- tool: 22 Autodesk .218 CoHSS drill   Z : -0.5898                   CT: 00:00:15
;           op: Gang:Drill2
; -- tool: 23 Autodesk O1/4 20tpi         Z : -0.5043                   CT: 00:00:03
;           op: Gang:Drill3
; -- tool: 2 Shars SVJBR12-3B             Z : -1.747                    CT: 00:01:14
;           op: QCTP:finish thread diameter
;           op: QCTP:rough rear of sphere
; -- tool: 8 Dorian SER 017-5-16          Z : -0.548                    CT: 00:00:29
;           op: Turr:1/2x20 thread
; -- tool: 24                             Z : -0.2011                   CT: 00:00:24
;           op: Gang:drill hole chamfer
; -- tool: 20 Iscar Penta 34              Z : -0.8072                   CT: 00:00:29
;           op: QCTP:front thread relief
; -- tool: 2 Shars SVJBR12-3B             Z : -1.7703                   CT: 00:00:49
;           op: Turr:finish front sphere
;           op: Turr:finish back sphere
; -- tool: 6 Thinbit Left Dovetail        Z : -0.3922                   CT: 00:02:35
;           op: QCTP:LeftDovetail
; -- tool: 20 Iscar Penta 34              Z : -0.3273                   CT: 00:01:53
;           op: QCTP:RightDovetail
; -- tool: 16 Dorian .122 groove          Z : -2.528                    CT: 00:15:39
;           op: Turr:rough rear
;           op: Turr:Part-off
; -- tool: 26 Stock Transfer              Z : -0.4                      CT: 00:00:13
;           op: Bar Puller
; 
; Approximate tool change time:  ................  :  00:04:15
; total cycle time ( with approx tool change time ):  00:36:13
;
G7
G18
G20
G54
G40
G90

G30
M0

; ==============================================================
; Tool: 1 Shars MWLNR12-3B Trigon face turn
; Time: 00:07:53
;    Z: -2.6312
;   Op: QCTP:rough profile
T0101
G96 S450 D1400 M3
G0 X-2.1
Z0.2169 M8
G0 X-2.1131
Z0.074
G95 G1 X-2. Z0.0175 F0.004
Z-2.6312 F0.006
X-2.0392
X-2.1523 Z-2.5747 F0.004
G0 Z0.0762
X-2.0731
G1 X-1.96 Z0.0196 F0.004
Z-2.6312 F0.006
X-2.
X-2.1131 Z-2.5747 F0.004
G0 Z0.0762
X-2.0331
G1 X-1.92 Z0.0196 F0.004
Z-2.6312 F0.006
X-1.96
X-2.0731 Z-2.5747 F0.004
G0 Z0.0762
X-1.9931
G1 X-1.88 Z0.0196 F0.004
Z-1.1776 F0.006
G2 X-1.8914 Z-1.2499 I0.4545 K-0.0723
G1 Z-2.6312
X-1.92
X-2.0331 Z-2.5747 F0.004
G0 Z0.0762
X-1.9531
G1 X-1.84 Z0.0196 F0.004
Z-1.0982 F0.006
G2 X-1.8914 Z-1.2499 I0.4345 K-0.1517
G1 X-2.0046 Z-1.1933 F0.004
G0 Z0.0762
X-1.9131
G1 X-1.8 Z0.0196 F0.004
Z-1.0499 F0.006
G2 X-1.86 Z-1.1306 I0.4145 K-0.2
G1 X-1.9731 Z-1.0741 F0.004
G0 Z0.0762
X-1.8731
G1 X-1.76 Z0.0196 F0.004
Z-1.0129 F0.006
G2 X-1.82 Z-1.0721 I0.3945 K-0.237
G1 X-1.9331 Z-1.0155 F0.004
G0 Z0.0762
X-1.8331
G1 X-1.72 Z0.0196 F0.004
Z-0.9824 F0.006
G2 X-1.78 Z-1.0304 I0.3745 K-0.2675
G1 X-1.8931 Z-0.9738 F0.004
G0 Z0.0762
X-1.7931
G1 X-1.68 Z0.0196 F0.004
Z-0.9636 F0.006
G2 X-1.713 Z-0.9775 I0.0208 K-0.0413
X-1.74 Z-0.997 I0.371 K-0.2723
G1 X-1.8531 Z-0.9404 F0.004
G0 Z0.0762
X-1.7531
G1 X-1.64 Z0.0196 F0.004
Z-0.9586 F0.006
G2 X-1.7 Z-0.9704 I0.0008 K-0.0462
G1 X-1.8131 Z-0.9138 F0.004
G0 Z0.0762
X-1.7131
G1 X-1.6 Z0.0196 F0.004
Z-0.9586 F0.006
X-1.6384
G2 X-1.66 Z-0.9599 I0. K-0.0462
G1 X-1.7731 Z-0.9033 F0.004
G0 Z0.0762
X-1.6731
G1 X-1.56 Z0.0196 F0.004
Z-0.9586 F0.006
X-1.62
X-1.7331 Z-0.9021 F0.004
G0 Z0.0762
X-1.6331
G1 X-1.52 Z0.0196 F0.004
Z-0.8925 F0.006
G2 X-1.5377 Z-0.9197 I0.0374 K-0.0272
G1 Z-0.9586
X-1.58
X-1.6931 Z-0.9021 F0.004
G0 Z0.0762
X-1.5931
G1 X-1.48 Z0.0196 F0.004
Z-0.8755 F0.006
G2 X-1.4991 Z-0.8821 I0.2545 K-0.3744
X-1.5377 Z-0.9197 I0.027 K-0.0376
G1 X-1.6508 Z-0.8631 F0.004
G0 Z0.0762
X-1.5531
G1 X-1.44 Z0.0196 F0.004
Z-0.8626 F0.006
G2 X-1.4991 Z-0.8821 I0.2345 K-0.3873
X-1.5 Z-0.8825 I0.027 K-0.0376
G1 X-1.6131 Z-0.8259 F0.004
G0 Z0.0762
X-1.5131
G1 X-1.4 Z0.0196 F0.004
Z-0.8512 F0.006
G2 X-1.46 Z-0.8688 I0.2145 K-0.3987
G1 X-1.5731 Z-0.8123 F0.004
G0 Z0.0762
X-1.4731
G1 X-1.36 Z0.0196 F0.004
Z-0.8411 F0.006
G2 X-1.42 Z-0.8567 I0.1945 K-0.4088
G1 X-1.5331 Z-0.8002 F0.004
G0 Z0.0762
X-1.4331
G1 X-1.32 Z0.0196 F0.004
Z-0.8321 F0.006
G2 X-1.38 Z-0.846 I0.1745 K-0.4177
G1 X-1.4931 Z-0.7894 F0.004
G0 Z0.0762
X-1.3931
G1 X-1.28 Z0.0196 F0.004
Z-0.8243 F0.006
G2 X-1.34 Z-0.8365 I0.1545 K-0.4255
G1 X-1.4531 Z-0.7799 F0.004
G0 Z0.0762
X-1.3531
G1 X-1.24 Z0.0196 F0.004
Z-0.8176 F0.006
G2 X-1.3 Z-0.8281 I0.1345 K-0.4323
G1 X-1.4131 Z-0.7715 F0.004
G0 Z0.0762
X-1.3131
G1 X-1.2 Z0.0196 F0.004
Z-0.8119 F0.006
G2 X-1.26 Z-0.8208 I0.1145 K-0.438
G1 X-1.3731 Z-0.7643 F0.004
G0 Z0.0762
X-1.2731
G1 X-1.16 Z0.0196 F0.004
Z-0.8071 F0.006
G2 X-1.22 Z-0.8146 I0.0945 K-0.4427
G1 X-1.3331 Z-0.758 F0.004
G0 Z0.0762
X-1.2331
G1 X-1.12 Z0.0196 F0.004
Z-0.8033 F0.006
G2 X-1.18 Z-0.8094 I0.0745 K-0.4465
G1 X-1.2931 Z-0.7528 F0.004
G0 Z0.0762
X-1.1931
G1 X-1.08 Z0.0196 F0.004
Z-0.8004 F0.006
G2 X-1.14 Z-0.8051 I0.0545 K-0.4494
G1 X-1.2531 Z-0.7485 F0.004
G0 Z0.0762
X-1.1531
G1 X-1.04 Z0.0196 F0.004
Z-0.7985 F0.006
G2 X-1.1 Z-0.8018 I0.0345 K-0.4514
G1 X-1.2131 Z-0.7452 F0.004
G0 Z0.0762
X-1.1131
G1 X-1. Z0.0196 F0.004
Z-0.7974 F0.006
G2 X-1.06 Z-0.7993 I0.0145 K-0.4525
G1 X-1.1731 Z-0.7428 F0.004
G0 Z0.0762
X-1.0731
G1 X-0.96 Z0.0196 F0.004
Z-0.7972 F0.006
X-0.971
G2 X-1.02 Z-0.7978 I0. K-0.4527
G1 X-1.1331 Z-0.7412 F0.004
G0 Z0.0762
X-1.0331
G1 X-0.92 Z0.0196 F0.004
Z-0.7972 F0.006
X-0.971
G2 X-0.98 I0. K-0.4527
G1 X-1.0931 Z-0.7406 F0.004
G0 Z0.0762
X-0.9931
G1 X-0.88 Z0.0196 F0.004
Z-0.7972 F0.006
X-0.94
X-1.0531 Z-0.7406 F0.004
G0 Z0.0762
X-0.9531
G1 X-0.84 Z0.0196 F0.004
Z-0.7972 F0.006
X-0.9
X-1.0131 Z-0.7406 F0.004
G0 Z0.0762
X-0.9131
G1 X-0.8 Z0.0196 F0.004
Z-0.7972 F0.006
X-0.86
X-0.9731 Z-0.7406 F0.004
G0 Z0.0762
X-0.8731
G1 X-0.76 Z0.0196 F0.004
Z-0.7972 F0.006
X-0.82
X-0.9331 Z-0.7406 F0.004
G0 Z0.0762
X-0.8331
G1 X-0.72 Z0.0196 F0.004
Z-0.7972 F0.006
X-0.78
X-0.8931 Z-0.7406 F0.004
G0 Z0.0762
X-0.7931
G1 X-0.68 Z0.0196 F0.004
Z-0.7972 F0.006
X-0.74
X-0.8531 Z-0.7406 F0.004
G0 Z0.0762
X-0.7531
G1 X-0.64 Z0.0196 F0.004
Z-0.7972 F0.006
X-0.7
X-0.8131 Z-0.7406 F0.004
G0 Z0.0762
X-0.7131
G1 X-0.6 Z0.0196 F0.004
Z-0.7972 F0.006
X-0.66
X-0.7731 Z-0.7406 F0.004
G0 Z0.0762
X-0.6731
G1 X-0.56 Z0.0196 F0.004
Z-0.7972 F0.006
X-0.62
X-0.7331 Z-0.7406 F0.004
G0 Z0.0762
X-0.6331
G1 X-0.52 Z0.0196 F0.004
Z-0.7972 F0.006
X-0.58
X-0.6931 Z-0.7406 F0.004
G0 Z0.0762
X-0.5931
G1 X-0.48 Z0.0196 F0.004
Z-0.164 F0.006
X-0.5049 Z-0.1856
G2 X-0.516 Z-0.2062 I0.0357 K-0.0206
G1 Z-0.7972
X-0.54
X-0.6531 Z-0.7406 F0.004
G0 Z0.0762
X-0.5531
G1 X-0.44 Z0.0196 F0.004
Z-0.1294 F0.006
X-0.5 Z-0.1813
X-0.6131 Z-0.1248 F0.004
G0 Z0.0762
X-0.5131
G1 X-0.4 Z0.0196 F0.004
Z-0.0947 F0.006
X-0.46 Z-0.1467
X-0.5731 Z-0.0901 F0.004
G0 Z0.0762
X-0.4731
G1 X-0.36 Z0.0196 F0.004
Z-0.0601 F0.006
X-0.42 Z-0.1121
X-0.5331 Z-0.0555 F0.004
G0 Z0.0762
X-0.4401
G1 X-0.327 Z0.0196 F0.004
Z-0.0315 F0.006
X-0.38 Z-0.0774
X-0.4931 Z-0.0208 F0.004
G0 Z0.0762
X-0.4071
G1 X-0.2939 Z0.0196 F0.004
Z-0.0043 F0.006
G2 X-0.3029 Z-0.0106 I0.0312 K-0.0269
G1 X-0.347 Z-0.0488
X-0.4601 Z0.0078 F0.004
X-0.4664 F0.006
G0 X-2.1
Z0.2169

; ..   ..   ..   ..   ..   ..   ..   ..   ..   ..   ..   ..   ..
;   Op: QCTP:face
; Time: 00:00:51
;    Z: 0.
G96 S450 D1600 M3
G0 X-2.8 Z0.2169
Z0.0706
G95 G1 X-0.7091 F0.004
X-0.596 Z0.014
X0.0625 F0.006
X-0.0506 Z0.0706 F0.004
G0 X-2.8
Z0.0636
G1 X-0.7091 F0.004
X-0.596 Z0.007
X0.0625 F0.006
X-0.0506 Z0.0636 F0.004
G0 X-2.8
Z0.0566
G1 X-0.7091 F0.004
X-0.596 Z0.
X0.0625 F0.006
X-0.0506 Z0.0566 F0.004
G0 X-2.8
Z0.2169
M9
M5

G30
M0

; ==============================================================
; Tool: 21  #3 (.250) Center drill 
; Time: 00:00:02
;    Z: -0.21
;   Op: Gang:center drill
T2121
G97 S1800 M3
G0 X0.
Z0.36 M8
G0 Z0.26
Z0.21
Z0.09
G94 G1 Z-0.0525 F13.3333
G0 Z-0.0475
G1 Z-0.115 F13.3333
G0 Z-0.11
G1 Z-0.1775 F13.3333
G0 Z-0.1725
G1 Z-0.21 F13.3333
G0 Z0.26
Z0.36
M9
M5

; ...pull back to safe Z...
Z2.

; ==============================================================
; Tool: 22 Autodesk .218 CoHSS drill 
; Time: 00:00:15
;    Z: -0.5898
;   Op: Gang:Drill2
T2222
G97 S1600 M3
G0 X0.
Z0.41 M8
G0 Z0.31
Z0.21
Z0.09
G94 G1 Z-0.05 F3.52
G0 Z0.21
Z0.03
G1 Z-0.105 F3.52
G0 Z0.21
Z-0.025
G1 Z-0.155 F3.52
G0 Z0.21
Z-0.075
G1 Z-0.2 F3.52
G0 Z0.21
Z-0.12
G1 Z-0.245 F3.52
G0 Z0.21
Z-0.165
G1 Z-0.29 F3.52
G0 Z0.21
Z-0.21
G1 Z-0.335 F3.52
G0 Z0.21
Z-0.255
G1 Z-0.38 F3.52
G0 Z0.21
Z-0.3
G1 Z-0.425 F3.52
G0 Z0.21
Z-0.345
G1 Z-0.47 F3.52
G0 Z0.21
Z-0.39
G1 Z-0.515 F3.52
G0 Z0.21
Z-0.435
G1 Z-0.56 F3.52
G0 Z0.21
Z-0.48
G1 Z-0.5898 F3.52
G0 Z0.31
Z0.41
M9
M5

; ...pull back to safe Z...
Z2.

; ==============================================================
; Tool: 23 Autodesk O1/4 20tpi 
; Time: 00:00:03
;    Z: -0.5043
;   Op: Gang:Drill3
T2323
G97 S500 M3
G0 X0.
Z0.81 M8
G33.1 Z-0.5043 K0.05
G0 Z0.81
M9
M5

G30
M0

; ==============================================================
; Tool: 2 Shars SVJBR12-3B Aluminum profile
; Time: 00:01:14
;    Z: -1.747
;   Op: QCTP:finish thread diameter
T0202
G96 S450 D1600 M3
G0 X-0.596
Z0.0496 M8
G0 X-0.3024
G95 G1 X-0.3014 F0.004
Z-0.0004 F0.002
G2 X-0.3022 Z-0.001 I0.0118 K-0.0076 F0.004
G1 X-0.496 Z-0.1689
X-0.5384 Z-0.1476
G0 Z0.0496
X-0.2939
G1 Z-0.0004 F0.002
Z-0.0059 F0.004
X-0.4939 Z-0.179
G2 X-0.496 Z-0.183 I0.0069 K-0.004
G1 Z-0.7978
X-0.5384 Z-0.7766
X-0.596

; ..   ..   ..   ..   ..   ..   ..   ..   ..   ..   ..   ..   ..
;   Op: QCTP:rough rear of sphere
; Time: 00:01:09
;    Z: -1.747
G96 S450 D1600 M3
G0 Z0.2169
X-2.0114
Z-1.1212
X-1.9021
G95 G1 X-1.8978 F0.004
Z-1.1712 F0.002
Z-1.747 F0.004
X-1.9106
X-1.9531 Z-1.7258
G0 Z-1.1211
G1 X-1.8843 F0.004
Z-1.1711 F0.002
G2 X-1.8738 Z-1.3139 I0.4334 K-0.0555 F0.004
G1 Z-1.747
X-1.8978
X-1.9403 Z-1.7258
G0 Z-1.2942
G1 X-1.8809 F0.004
G2 X-1.8498 Z-1.3598 I0.4317 K0.0676
G1 Z-1.747
X-1.8738
X-1.9163 Z-1.7258
G0 Z-1.3406
G1 X-1.8612 F0.004
G2 X-1.8258 Z-1.3927 I0.4218 K0.114
G1 Z-1.747
X-1.8498
X-1.8923 Z-1.7258
G0 Z-1.374
G1 X-1.8402 F0.004
G2 X-1.8018 Z-1.4193 I0.4113 K0.1474
G1 Z-1.747
X-1.8258
X-1.8683 Z-1.7258
G0 Z-1.4012
G1 X-1.8187 F0.004
G2 X-1.7778 Z-1.442 I0.4006 K0.1746
G1 Z-1.747
X-1.8018
X-1.8443 Z-1.7258
G0 Z-1.4244
G1 X-1.7968 F0.004
G2 X-1.7643 Z-1.4536 I0.3896 K0.1978
G3 X-1.7538 Z-1.4668 I-0.0359 K-0.0218
G1 Z-1.747
X-1.7778
X-1.8203 Z-1.7258
G0 Z-1.4487
G1 X-1.7702 F0.004
G2 X-1.7643 Z-1.4536 I0.3763 K0.2221
G3 X-1.752 Z-1.4754 I-0.0359 K-0.0218
G1 Z-1.717
G2 X-1.7392 Z-1.7308 I0.018 K0.
G1 X-1.7298 Z-1.7347
Z-1.747
X-1.7538
X-1.7963 Z-1.7258
G0 Z-1.7188
G1 X-1.7519 F0.004
G2 X-1.7392 Z-1.7308 I0.0179 K0.0018
G1 X-1.7152 Z-1.7409
Z-1.747
X-1.7298
X-1.7723 Z-1.7258
G0 Z-1.7276
G1 X-1.7451 F0.004
G2 X-1.7392 Z-1.7308 I0.0145 K0.0106
G1 X-1.7005 Z-1.747
X-1.7152
X-1.7576 Z-1.7258
X-1.8509
G0 X-2.0114
M9
M5

G30
M0

; ==============================================================
; Tool: 8 Dorian SER 017-5-16 2-ER16 20UN
; Time: 00:00:29
;    Z: -0.548
;   Op: Turr:1/2x20 thread
T0808
G97 S450 M3
G0 X0.6
Z0.1125 M8
G76 P0.05 Z-0.7355 I-0.1 J0.0227 K0.076 R2. Q30. H1
G0 X0.6 Z0.2387
M9
M5

G30
M0

; ==============================================================
; Tool: 24   
; Time: 00:00:24
;    Z: -0.2011
;   Op: Gang:drill hole chamfer
T2424
G97 S1000 M3
G0 X0.
Z0.35 M8
G0 Z0.3
Z0.2
G94 G1 Z-0.2011 F1.
G0 Z0.3
Z0.35
M9
M5

G30
M0

; ==============================================================
; Tool: 20 Iscar Penta 34 1.5mm grooving
; Time: 00:00:29
;    Z: -0.8072
;   Op: QCTP:front thread relief
T2020
G96 S350 D1600 M3
G0 X-2.1
Z-0.7791 M8
G0 X-1.1618
G95 G1 X-1.0018 F0.008
X-0.536 F0.002
X-1.1618 F0.01
G0 Z-0.7872
G1 X-1.0018 F0.008
X-0.5328 F0.002
X-1.0168 F0.01
G0 Z-0.7972
G1 X-0.562 F0.01
X-0.482 F0.008
X-0.5001 Z-0.7919 F0.002
G3 X-0.5159 Z-0.7791 I0.008 K0.0138
G1 X-0.5883 Z-0.7962 F0.01
X-1.2119
G0 X-1.2122
Z-0.7972
G1 X-0.482 F0.008
X-1.0018 F0.002
X-0.482 F0.01
X-1.0175
G0 Z-0.8053
G1 X-0.5 F0.01
X-0.42 F0.008
Z-0.8035 F0.002
X-0.4901 Z-0.7833
G3 X-0.4959 Z-0.7791 I0.003 K0.0051
G1 X-0.5577 Z-0.8044 F0.01
G0 Z-0.7848
G1 X-0.4886 F0.01
X-0.42 Z-0.8053 F0.008
Z-0.8072 F0.002
X-1.0018
X-1.0584 Z-0.7789 F0.01
X-1.3253
G0 X-2.1
M9
M5

G30
M0

; ==============================================================
; Tool: 2 Shars SVJBR12-3B Aluminum face turn profile
; Time: 00:00:49
;    Z: -1.7703
;   Op: Turr:finish front sphere
T0202
G96 S450 D1600 M3
G0 X2.0114
Z-0.4605 M8
G0 X0.6988
G95 G1 Z-0.5605 F0.002
G2 X1.1173 Z-0.8072 I0.25 K0.
G3 X1.4945 Z-0.8854 I-0.0731 K-0.4427 F0.004
X1.5297 Z-0.9203 I-0.0246 K-0.0343
G1 X1.5721 Z-0.8991
G0 Z-0.7073
X1.0018
G1 Z-0.8073 F0.002
Z-0.8074 F0.004
G3 X1.4875 Z-0.8903 I-0.0154 K-0.4424
X1.5177 Z-0.9203 I-0.0211 K-0.0294
G1 X1.5601 Z-0.8991
X1.6126
G0 X2.0114

; ..   ..   ..   ..   ..   ..   ..   ..   ..   ..   ..   ..   ..
;   Op: Turr:finish back sphere
; Time: 00:00:34
;    Z: -1.7703
G96 S450 D1600 M3
G0 Z-0.8862
X2.0114
X1.8561
G95 G1 X1.7147 Z-0.9569 F0.002
G2 X1.7029 Z-0.9711 I0.0141 K-0.0141
G1 Z-0.9776 F0.004
G3 X1.7065 Z-0.9799 I-0.0323 K-0.0273
X1.7507 Z-1.4869 I-0.3677 K-0.27
G2 X1.744 Z-1.4987 I0.0194 K-0.0118
G1 Z-1.7403
G3 X1.7174 Z-1.7688 I-0.0373 K0.
G1 X1.7139 Z-1.7703
X1.7449 Z-1.7576
G0 X1.8913
Z-0.8928
X1.8561
G1 X1.7147 Z-0.9635 F0.002
G2 X1.7029 Z-0.9776 I0.0141 K-0.0141
G1 Z-0.9877 F0.004
G3 X1.7404 Z-1.4837 I-0.366 K-0.2622
G2 X1.732 Z-1.4987 I0.0246 K-0.0149
G1 Z-1.7403
G3 X1.7097 Z-1.7642 I-0.0313 K0.
G1 X1.7029 Z-1.767
Z-1.7703
X1.7312 Z-1.7561
G0 X2.0114
M9
M5

G30
M0

; **error**error**error
;  Error file: C:\Users\Public\Documents\Autodesk\Inventor HSM 2015\PassthroughCode\fail.nc not found ! 
; **error**error**error
;  #####################################################
; Notes on thinbit bits
;     bit need to be swapped
;     between operations
;  #####################################################


; ==============================================================
; Tool: 6 Thinbit Left Dovetail Thinbit Left Dovetail
; Time: 00:02:35
;    Z: -0.3922
;   Op: QCTP:LeftDovetail
T0606
G96 S450 D1400 M3
G0 X-3.1206 ( start point )
Z-0.2941 M8
G1 G95 F0.0015
G1 X-3.0442 Z-0.3323 ( plunge 1 )
X-3.1206 Z-0.2941
X-3.023 Z-0.3429 ( plunge 2 )
X-3.1206 Z-0.2941
X-3.0018 Z-0.3535 ( plunge 3 )
X-3.1206 Z-0.2941
X-2.9806 Z-0.3642 ( plunge 4 )
X-3.1206 Z-0.2941
G1 X-2.9638 Z-0.3726 ( plunge 5 )
G1 X-3.1206 Z-0.2941 ( retract )
X-3.238 Z-0.363 ( starting point )
G2 X-3.1226 Z-0.3346 I-0.013 K0.0992
G3 X-3.0434 Z-0.3346 I0.0198 K-0.0198
G1 X-2.9656 Z-0.3735
G1 X-3.1226 Z-0.295
G1 X-3.238 Z-0.363
G2 X-3.1226 Z-0.3346 I-0.013 K0.0992
G3 X-3.0362 Z-0.339 I0.0198 K-0.0198
G1 X-2.9808 Z-0.3811
G1 X-2.9808 Z-0.3641
G1 X-3.1206 Z-0.2941
G1 X-3.264 Z-0.2639
G1 X-3.2372 Z-0.366
G2 X-3.1182 Z-0.3367 I-0.0134 K0.1021
G3 X-3.0362 Z-0.3454 I0.0177 K-0.0177
G1 X-2.9946 Z-0.3922
G1 X-2.9808 Z-0.3641
G1 X-3.1206 Z-0.2941
G0 Z.25

M9
M5

G30
M0

; ==============================================================
; Tool: 20 Iscar Penta 34 1.5mm grooving
; Time: 00:01:53
;    Z: -0.3273
;   Op: QCTP:RightDovetail
T2020
G96 S350 D1600 M3
G0 X-2.894
Z-0.1911 M8
G1 G95 F0.0015
G3 X-2.951 Z-0.2488 I-0.0992 K0.013
G2 X-2.951 Z-0.2884 I0.0198 K-0.0198
G1 X-2.8732 Z-0.3273
X-2.951 Z-0.2884
X-3.0302 Z-0.2488
Z-0.1648
X-2.894 Z-0.1911
G3 X-2.951 Z-0.2488 I-0.0992 K0.013
G2 X-2.9422 Z-0.292 I0.0198 K-0.0198
G1 X-2.858 Z-0.3197
X-2.892 Z-0.3197
X-3.032 Z-0.2497
X-3.0924 Z-0.1781
X-2.8882 Z-0.1914
G3 X-2.9468 Z-0.2509 I-0.1021 K0.0134
G2 X-2.9292 Z-0.2919 I0.0177 K-0.0177
G1 X-2.8356 Z-0.3128
X-2.892 Z-0.3197
X-3.032 Z-0.2497
G0 Z.25
M5
M9

G30
M0

; ==============================================================
; Tool: 16 Dorian .122 groove Slot Grip
; Time: 00:15:39
;    Z: -2.528
;   Op: Turr:rough rear
T1616
G96 S350 D1600 M3
G0 X2.2
Z0.3389 M8
G0 Z-1.709
G95 G1 X2.04 F0.002
X1.744
X2.2
G0 Z-1.748
G1 X2.04 F0.002
X1.6289
X2.1797
G0 X2.2
Z-1.787
G1 X2.04 F0.002
X1.012
X1.9838
X2.04
X2.1796
G0 X2.2
Z-1.826
G1 X2.04 F0.002
X1.012
X1.6866
X1.7666 Z-1.786
X2.0832
G0 X2.2
Z-1.865
G1 X2.04 F0.002
X1.012
X1.5742
X1.6542 Z-1.825
X2.0648
G0 X2.2
Z-1.904
G1 X2.04 F0.002
X1.012
X1.092 Z-1.864
X2.0648
G0 X2.2
Z-1.943
G1 X2.04 F0.002
X1.012
X1.092 Z-1.903
X2.0648
G0 X2.2
Z-1.982
G1 X2.04 F0.002
X1.012
X1.092 Z-1.942
X2.0648
G0 X2.2
Z-2.021
G1 X2.04 F0.002
X1.012
X1.092 Z-1.981
X2.0648
G0 X2.2
Z-2.06
G1 X2.04 F0.002
X1.012
X1.092 Z-2.02
X2.0648
G0 X2.2
Z-2.099
G1 X2.04 F0.002
X1.012
X1.092 Z-2.059
X2.0648
G0 X2.2
Z-2.138
G1 X2.04 F0.002
X1.012
X1.092 Z-2.098
X2.0648
G0 X2.2
Z-2.177
G1 X2.04 F0.002
X1.012
X1.092 Z-2.137
X2.0648
G0 X2.2
Z-2.216
G1 X2.04 F0.002
X1.012
X1.092 Z-2.176
X2.0648
G0 X2.2
Z-2.255
G1 X2.04 F0.002
X1.012
X1.092 Z-2.215
X2.0648
G0 X2.2
Z-2.294
G1 X2.04 F0.002
X1.012
X1.092 Z-2.254
X2.0648
G0 X2.2
Z-2.333
G1 X2.04 F0.002
X1.012
X1.092 Z-2.293
X2.0648
G0 X2.2
Z-2.372
G1 X2.04 F0.002
X1.012
X1.092 Z-2.332
X2.0648
G0 X2.2
Z-2.411
G1 X2.04 F0.002
X1.012
X1.092 Z-2.371
X2.0648
G0 X2.2
Z-2.45
G1 X2.04 F0.002
X1.012
X1.092 Z-2.41
X2.0642
G0 X2.2
Z-2.489
G1 X2.04 F0.002
X0.9602
X1.0151
X1.0951 Z-2.449
X2.0642
G0 X2.2
Z-2.528
G1 X2.04 F0.002
X0.8909
X1.0121
X1.0921 Z-2.488
X1.9041
G0 Z-1.709
G1 X1.904 F0.002
X1.744
G3 X1.734 Z-1.7177 I-0.01 K0.
G1 X1.592 Z-1.7587
G3 X1.582 Z-1.76 I-0.005 K0.0087
G1 X1.0857
G2 X1.0722 Z-1.7612 I0. K-0.02
G1 X1.012 Z-1.772
Z-2.4683
G3 X1.002 Z-2.4769 I-0.01 K0.
G1 X0.8921 Z-2.5087
G3 X0.8893 Z-2.5093 I-0.005 K0.0087
G1 Z-2.528
X1.013 Z-2.4772
X1.0776
G0 X2.2
Z0.3389

; ..   ..   ..   ..   ..   ..   ..   ..   ..   ..   ..   ..   ..
;   Op: Turr:Part-off
; Time: 00:00:56
;    Z: -2.51
G96 S350 D1600 M3
G0 X2.1 Z0.3389
Z-2.51
G95 G1 X1.24 F0.002
X1.4
X0.44
X0.6
X-0.008
X2.1
G0 Z0.3389
M9
M5

G30
M0

; ==============================================================
; Tool: 26   
; Time: 00:00:13
;    Z: -0.4
;   Op: Bar Puller
T2626
G94
G0 X0.
G0 Z-0.25
G1 Z-0.4 F5
M64 P2
G4 P1
G1 Z-0.1
M65 P2
G4 P1
G0 Z1.


G30
M0

M30
%
